X:242
T: Abendreihen mit Kranzsingen
N: A0288
O: Europa, Mitteleuropa, Deutschland
N: Nic. Hermann: Evangelia auf alle Sonn - und Festtage. 1560.
R: Romanze, Ballade, Lied
M: 4/2
L: 1/4
K: F
F2 | c2c2c2c2 | d2cBA2
A2 | B2c2d2d2 | c4z2
c2 | c2c2c2A2 | c2BAG2
c2 | A2GFG2E2 | F4
A4 | c2BAG2G2 | F4z2

@@@ Tune index: 242
